X:463
T:Megalomania
C:Colin Hume, 1995
L:1/4
M:2/2
S:Colin Hume's website,  colinhume.com  - chords can also be printed below the stave.
Q:1/2=112
H:For Meg Winters
K:C
P:A
|: "C"GE "/"E3/G/ | "C"ec "/"c3/E/ | "Dm"FD "/"AF | "G7"B_B "/"A_A | "C"Gc "/"c3/E/ | "Dm"Fd "/"d3/A/ | "G7"_AG "/"_ed | "C"c2- "/"c2 :|
K:G
P:B
|: "G"dB "/"B3/d/ | "D7"cA "/"AG/A/ | "C7"_BG "/"BG | "D7"AD "/"D2 | "G"G/A/B/c/ "/"d L^g | "G"d2B3/G/ | "Am"A/B/c/d/ "D7"ef | "G"g2- "/"g2 :|

